symbols/web/3d_rotation/materialsymbolsoutlined/3d_rotation_wght600gradN25_40px.svg

<svg xmlns="http://www.w3.org/2000/svg" height="40" width="40"><path d="M20 37.042q-3.5 0-6.604-1.334-3.104-1.333-5.438-3.666-2.333-2.334-3.666-5.438Q2.958 23.5 2.958 20H6.5q0 4.875 3.167 8.646 3.166 3.771 8.041 4.646l-2.375-2.375 2.084-2.167 7.5 7.458q-1.167.5-2.417.667-1.25.167-2.5.167Zm1.25-11.917V14.833h5.375q.792 0 1.292.521t.5 1.271v6.75q0 .75-.5 1.25t-1.292.5Zm-9.333 0v-2.25h4.875v-2.083H13.5v-1.584h3.292v-2.083h-4.875v-2.292h5.416q.75 0 1.25.521t.5 1.271v6.75q0 .75-.5 1.25t-1.25.5Zm11.583-2.25h2.625v-5.75H23.5ZM33.5 20q0-4.875-3.125-8.667-3.125-3.791-8.042-4.625l2.334 2.375-2.084 2.167-7.5-7.5q1.167-.458 2.417-.646 1.25-.187 2.5-.187 3.5 0 6.604 1.354t5.438 3.687q2.333 2.334 3.687 5.438Q37.083 16.5 37.083 20Z"/></svg>

<svg xmlns="http://www.w3.org/2000/svg" height="40" width="40"><path d="M15.083 3.75Q16.25 3.292 17.5 3.104Q18.75 2.917 20 2.917Q23.5 2.917 26.604 4.271Q29.708 5.625 32.042 7.958Q34.375 10.292 35.729 13.396Q37.083 16.5 37.083 20H33.5Q33.5 15.125 30.375 11.333Q27.25 7.542 22.333 6.708L24.667 9.083L22.583 11.25ZM24.917 36.208Q23.75 36.708 22.5 36.875Q21.25 37.042 20 37.042Q16.5 37.042 13.396 35.708Q10.292 34.375 7.958 32.042Q5.625 29.708 4.292 26.604Q2.958 23.5 2.958 20H6.5Q6.5 24.875 9.667 28.646Q12.833 32.417 17.708 33.292L15.333 30.917L17.417 28.75ZM21.25 25.125V14.833H26.625Q27.417 14.833 27.917 15.354Q28.417 15.875 28.417 16.625V23.375Q28.417 24.125 27.917 24.625Q27.417 25.125 26.625 25.125ZM23.5 22.875H26.125Q26.125 22.875 26.125 22.875Q26.125 22.875 26.125 22.875V17.125Q26.125 17.125 26.125 17.125Q26.125 17.125 26.125 17.125H23.5ZM11.917 25.125V22.875H16.792V20.792H13.5V19.208H16.792V17.125H11.917V14.833H17.333Q18.083 14.833 18.583 15.354Q19.083 15.875 19.083 16.625V23.375Q19.083 24.125 18.583 24.625Q18.083 25.125 17.333 25.125Z"/></svg>
